lib/brands/icons/greenlight-medical.svg

<svg xmlns="http://www.w3.org/2000/svg" fill="none" aria-hidden="true" viewBox="0 0 48 48"><g id="greenlight-medical-Icon"><g id="Union"><path fill="#8CC63F" fill-rule="evenodd" d="M20.6481 40.7721C20.6481 42.5537 22.0913 44 23.8754 44C25.6586 44 27.1015 42.5533 27.1015 40.7721C27.1015 40.117 26.9061 39.5072 26.5703 38.9979L28.1038 38.6919C29.3658 38.4693 30.2139 37.2689 30.0007 36.0042C29.7873 34.7348 28.5827 33.8743 27.3082 34.092L20.1106 35.3152C19.8938 35.3516 19.689 35.2055 19.6528 34.9899L19.6525 34.9884C19.616 34.7725 19.7612 34.5672 19.9787 34.5306L28.0598 33.1647C29.3298 32.9505 30.1884 31.7463 29.973 30.4751L17.6841 29.7788C17.8992 31.0481 19.1018 31.9079 20.3744 31.6932L27.606 30.4718C27.8223 30.4351 28.0272 30.5802 28.0638 30.7975L28.064 30.7986C28.1003 31.0125 27.9552 31.2188 27.7377 31.2555L19.6568 32.6213C18.3858 32.8358 17.5284 34.0397 17.7434 35.3112C17.9573 36.5827 19.1621 37.4388 20.4327 37.2244L27.6343 36.0005C27.8499 35.9637 28.055 36.1094 28.0913 36.3253L28.0914 36.3259C28.128 36.5423 27.9814 36.7489 27.7646 36.7857L27.7507 36.788L23.9508 37.5463C23.9258 37.5457 23.9006 37.5454 23.8754 37.5454C22.0916 37.5454 20.6481 38.9914 20.6481 40.7721ZM25.1653 40.7721C25.1653 40.1265 24.6909 39.5912 24.0719 39.4965L24.0483 39.5012L24.0466 39.4929C23.9906 39.4855 23.9334 39.4816 23.8754 39.4816C23.1616 39.4816 22.5843 40.0601 22.5843 40.7721C22.5843 41.4857 23.162 42.0638 23.8754 42.0638C24.5873 42.0638 25.1653 41.486 25.1653 40.7721Z" clip-rule="evenodd"/><path fill="#8CC63F" d="M17.6841 29.7788L29.9729 30.4745C29.758 29.2037 28.554 28.3469 27.282 28.563L20.0522 29.784C19.8372 29.8202 19.6302 29.6746 19.5931 29.4552C19.5646 29.2871 19.6484 29.1226 19.7933 29.0425L19.921 28.9979L27.844 27.6798L29.3586 27.4098C29.7578 26.5499 30.1309 26.2652 30.691 25.8377C30.9533 25.6375 31.2568 25.4059 31.6231 25.0692L31.7119 24.9877C32.8305 23.9602 34.1428 22.7549 35.3281 20.8526C37.9268 16.682 36.9675 8.71404 29.7128 5.12988C29.4695 4.47019 28.8351 4 28.0912 4C27.1366 4 26.3628 4.77328 26.3628 5.72786C26.3628 6.68185 27.1366 7.45633 28.0912 7.45633C28.4512 7.45633 28.7855 7.34607 29.0623 7.15751C34.9265 10.2484 35.4666 16.6569 33.5447 19.7414C32.5119 21.3989 31.3787 22.4402 30.2544 23.4732L30.2013 23.522C29.4923 24.1735 28.7642 24.8443 28.1264 25.67L20.783 26.8917C20.0014 25.3319 18.8777 24.2956 17.7985 23.3039L17.7454 23.255C16.6211 22.222 15.4879 21.1807 14.4551 19.5232C12.5682 16.4948 13.0545 10.2624 18.6227 7.1113C18.9114 7.32793 19.2702 7.45633 19.6591 7.45633C20.6131 7.45633 21.3869 6.68185 21.3869 5.72786C21.3869 4.77328 20.6131 4 19.6591 4C18.9588 4 18.3563 4.41565 18.0846 5.01367C11.0146 8.64495 10.0974 16.5029 12.6717 20.6344C13.857 22.5367 15.1693 23.742 16.288 24.7695L16.3767 24.851C17.3474 25.7431 18.1232 26.4778 18.6941 27.4464C17.9514 27.9404 17.5249 28.8396 17.6841 29.7788Z"/><path fill="#8CC63F" d="M24.9924 19.8715V17.2202H27.6437V15.1189H24.9924V12.4659H22.8911V15.1189H20.2387V17.2202H22.8911V19.8715H24.9924Z"/></g></g></svg>

<svg xmlns="http://www.w3.org/2000/svg" fill="none" aria-hidden="true" viewBox="0 0 48 48"><g fill="#8CC63F"><path fill-rule="evenodd" d="M20.648 40.772a3.227 3.227 0 1 0 5.922-1.774l1.534-.306A2.336 2.336 0 0 0 30 36.004a2.332 2.332 0 0 0-2.693-1.912l-7.197 1.223a.397.397 0 0 1-.458-.325v-.002a.397.397 0 0 1 .326-.457l8.08-1.366a2.334 2.334 0 0 0 1.914-2.69l-12.289-.696a2.336 2.336 0 0 0 2.69 1.914l7.232-1.221a.397.397 0 0 1 .458.325v.002a.398.398 0 0 1-.326.457l-8.081 1.365a2.334 2.334 0 1 0 .776 4.603l7.201-1.223a.396.396 0 0 1 .457.324.4.4 0 0 1-.326.46l-.014.003-3.8.758h-.076a3.227 3.227 0 0 0-3.227 3.226Zm4.517 0c0-.645-.474-1.18-1.093-1.276l-.024.005-.001-.008a1.29 1.29 0 1 0 1.119 1.28Z" clip-rule="evenodd"/><path d="m17.684 29.779 12.289.695a2.333 2.333 0 0 0-2.691-1.911l-7.23 1.221a.4.4 0 0 1-.459-.329.397.397 0 0 1 .2-.412l.128-.045 7.923-1.318 1.515-.27c.399-.86.772-1.145 1.332-1.572.262-.2.566-.432.932-.769l.089-.081c1.119-1.028 2.43-2.233 3.616-4.135 2.599-4.171 1.64-12.139-5.615-15.723a1.729 1.729 0 1 0-.65 2.028c5.863 3.09 6.404 9.499 4.482 12.583-1.033 1.658-2.166 2.7-3.29 3.732l-.054.049c-.709.652-1.437 1.322-2.075 2.148l-7.343 1.222c-.782-1.56-1.905-2.596-2.985-3.588l-.053-.049c-1.124-1.033-2.257-2.074-3.29-3.732-1.887-3.028-1.4-9.26 4.168-12.412a1.729 1.729 0 1 0-.538-2.098c-7.07 3.632-7.988 11.49-5.413 15.621 1.185 1.903 2.497 3.108 3.616 4.136l.089.081c.97.892 1.746 1.627 2.317 2.595a2.332 2.332 0 0 0-1.01 2.333Z"/><path d="M24.992 19.872V17.22h2.652v-2.1h-2.652v-2.653h-2.1v2.653h-2.653v2.101h2.652v2.652h2.101Z"/></g></svg>
